;FLAVOR:Marlin
;TIME:9530
;Filament used: 12.8709m
;Layer height: 0.2
;MINX:36.6
;MINY:102.6
;MINZ:0.3
;MAXX:263.4
;MAXY:197.4
;MAXZ:5.9
;Generated with Cura_SteamEngine 4.2.1
M140 S60
M105
M190 S60
M82 ;absolute extrusion mode
; start_gcode
M117 Start Clean        ; Indicate nozzle clean in progress on LCD
;
M104 S200 
M109 S200 
M109 R200 
;
M107                    ; Turn layer fan off
G21                     ; Set to metric [change to G20 if you want Imperial]
G90                     ; Force coordinates to be absolute relative to the origin
G28                     ; Home X/Y/Z axis
;
G1 X3 Y1 Z15 F9000      ; Move safe Z height to shear strings
G0 X1 Y1 Z0.2 F9000     ; Move in 1mm from edge and up [z] 0.2mm
G92 E0                  ; Set extruder to [0] zero
G1 X100 E12 F500        ; Extrude 30mm filiment along X axis 100mm long to prime and clean the nozzle
G92 E0                  ; Reset extruder to [0] zero end of cleaning run
G1 E-1 F500             ; Retract filiment by 1 mm to reduce string effect
G1 X180 F4000           ; quick wipe away from the filament line / purge
M117 End Clean          ; Indicate nozzle clean in progress on LCD
;
M117 Printing...
; Begin printing with sliced GCode after here
;
M141 S28
G92 E0
G92 E0
G1 F2400 E-6.8
;LAYER_COUNT:29
;LAYER:0
M107
M204 S500
M205 X8 Y8
G0 F3600 X48.675 Y104.756 Z0.3
;TYPE:SKIRT
G1 F2400 E0
G1 F2700 X49.298 Y104.468 E0.03424
G1 X49.609 Y104.33 E0.05122
G1 X49.82 Y104.24 E0.06266
G1 X50.485 Y103.981 E0.09827
G1 X51.151 Y103.745 E0.13352
G1 X51.461 Y103.64 E0.14985
G1 X51.675 Y103.571 E0.16106
G1 X52.362 Y103.373 E0.19673
G1 X53.034 Y103.202 E0.23133
G1 X53.344 Y103.128 E0.24723
G1 X53.553 Y103.081 E0.25792
G1 X54.3 Y102.939 E0.29585
G1 X55 Y102.83 E0.3312
G1 X55.335 Y102.783 E0.34807
G1 X55.59 Y102.751 E0.36089
G1 X56.284 Y102.685 E0.39567
G1 X56.927 Y102.644 E0.42782
G1 X57.292 Y102.627 E0.44605
G1 X57.862 Y102.609 E0.4745
G1 X58.099 Y102.604 E0.48633
G1 X58.377 Y102.601 E0.5002
G1 X58.5 Y102.6 E0.50633
G1 X95.488 Y102.6 E2.35167
G1 X95.652 Y102.601 E2.35985
G1 X96.628 Y102.615 E2.40855
G1 X97.132 Y102.634 E2.43371
G1 X97.677 Y102.666 E2.46095
G1 X98.362 Y102.727 E2.49526
G1 X98.998 Y102.803 E2.52722
G1 X99.355 Y102.851 E2.54519
G1 X99.612 Y102.89 E2.55816
G1 X100.277 Y103.011 E2.59188
G1 X100.967 Y103.158 E2.62708
G1 X101.346 Y103.246 E2.64649
G1 X101.579 Y103.304 E2.65847
G1 X102.223 Y103.484 E2.69183
G1 X102.857 Y103.682 E2.72496
G1 X103.19 Y103.792 E2.74246
G1 X103.421 Y103.872 E2.75466
G1 X104.092 Y104.128 E2.79049
G1 X104.706 Y104.385 E2.82369
G1 X105.045 Y104.533 E2.84215
G1 X105.279 Y104.64 E2.85499
G1 X105.876 Y104.935 E2.88821
G1 X106.51 Y105.271 E2.92401
G1 X106.851 Y105.459 E2.94343
G1 X106.943 Y105.512 E2.94873
G1 X109.247 Y106.79 E3.08018
G1 X111.438 Y107.926 E3.2033
G1 X113.698 Y109.017 E3.32851
G1 X115.991 Y110.045 E3.45388
G1 X118.345 Y111.024 E3.58107
G1 X120.635 Y111.897 E3.70334
G1 X123.008 Y112.728 E3.82878
G1 X125.383 Y113.484 E3.95312
G1 X127.828 Y114.189 E4.08008
G1 X130.234 Y114.808 E4.20402
G1 X132.694 Y115.369 E4.3299
G1 X135.117 Y115.846 E4.4531
G1 X137.634 Y116.27 E4.58045
G1 X140.09 Y116.613 E4.70417
G1 X142.547 Y116.886 E4.8275
G1 X145.101 Y117.096 E4.95535
G1 X147.579 Y117.23 E5.07916
G1 X150.071 Y117.294 E5.20353
G1 X152.605 Y117.287 E5.32995
G1 X155.08 Y117.21 E5.45349
G1 X157.608 Y117.061 E5.57983
G1 X160.089 Y116.843 E5.70408
G1 X162.563 Y116.555 E5.82835
G1 X165.064 Y116.193 E5.95442
G1 X167.527 Y115.764 E6.07915
G1 X169.975 Y115.266 E6.20378
G1 X172.401 Y114.701 E6.32806
G1 X174.861 Y114.054 E6.45496
G1 X177.256 Y113.351 E6.57949
G1 X179.615 Y112.585 E6.70323
G1 X182.004 Y111.736 E6.82972
G1 X184.336 Y110.83 E6.95453
G1 X186.657 Y109.852 E7.08019
G1 X188.905 Y108.83 E7.20339
G1 X191.187 Y107.713 E7.33015
G1 X193.384 Y106.559 E7.45395
G1 X195.344 Y105.455 E7.56618
G1 X195.5 Y105.369 E7.57507
G1 X195.988 Y105.104 E7.60278
G1 X196.616 Y104.787 E7.63787
G1 X197.271 Y104.482 E7.67392
G1 X197.599 Y104.336 E7.69183
G1 X197.793 Y104.253 E7.70236
G1 X198.441 Y103.999 E7.73708
G1 X199.093 Y103.766 E7.77163
G1 X199.436 Y103.649 E7.78971
G1 X199.669 Y103.574 E7.80192
G1 X200.403 Y103.365 E7.83999
G1 X201.281 Y103.146 E7.88514
G1 X202.266 Y102.946 E7.93528
G1 X202.958 Y102.837 E7.97023
G1 X203.287 Y102.79 E7.98681
G1 X203.514 Y102.761 E7.99823
G1 X204.2 Y102.694 E8.03262
G1 X204.874 Y102.649 E8.06632
G1 X205.25 Y102.63 E8.0851
G1 X205.786 Y102.612 E8.11186
G1 X206.039 Y102.607 E8.12448
G1 X206.389 Y102.603 E8.14195
G1 X206.518 Y102.602 E8.14838
G1 X241.289 Y102.6 E9.88311
G1 X241.454 Y102.601 E9.89135
G1 X242.429 Y102.615 E9.93999
G1 X242.941 Y102.634 E9.96555
G1 X243.513 Y102.668 E9.99414
G1 X244.203 Y102.73 E10.02871
G1 X244.841 Y102.807 E10.06077
G1 X245.232 Y102.861 E10.08046
G1 X245.482 Y102.9 E10.09308
G1 X246.131 Y103.021 E10.12602
G1 X246.835 Y103.173 E10.16195
G1 X247.239 Y103.268 E10.18266
G1 X247.467 Y103.326 E10.19439
G1 X248.069 Y103.497 E10.22562
G1 X248.713 Y103.699 E10.25929
G1 X249.046 Y103.809 E10.27678
G1 X249.253 Y103.881 E10.28772
G1 X249.922 Y104.137 E10.32346
G1 X250.572 Y104.41 E10.35863
G1 X250.952 Y104.578 E10.37936
G1 X251.144 Y104.667 E10.38991
G1 X251.709 Y104.948 E10.4214
G1 X252.338 Y105.283 E10.45695
G1 X252.689 Y105.478 E10.47698
G1 X252.886 Y105.592 E10.48834
G1 X253.442 Y105.935 E10.52093
G1 X254.015 Y106.312 E10.55515
G1 X254.334 Y106.531 E10.57445
G1 X254.529 Y106.669 E10.58637
G1 X255.068 Y107.074 E10.62001
G1 X255.589 Y107.491 E10.6533
G1 X255.869 Y107.723 E10.67144
G1 X256.061 Y107.887 E10.68404
G1 X256.569 Y108.348 E10.71827
G1 X257.069 Y108.83 E10.75291
G1 X257.321 Y109.081 E10.77066
G1 X257.474 Y109.238 E10.7816
G1 X257.949 Y109.756 E10.81666
G1 X258.407 Y110.288 E10.85168
G1 X258.655 Y110.586 E10.87102
G1 X258.798 Y110.764 E10.88242
G1 X259.198 Y111.292 E10.91546
G1 X259.601 Y111.858 E10.95013
G1 X259.799 Y112.146 E10.96756
G1 X259.919 Y112.326 E10.97836
G1 X260.292 Y112.925 E11.01356
G1 X260.648 Y113.538 E11.04893
G1 X260.817 Y113.84 E11.06619
G1 X260.923 Y114.036 E11.07731
G1 X261.244 Y114.675 E11.11299
G1 X261.532 Y115.298 E11.14723
G1 X261.67 Y115.609 E11.1642
G1 X261.76 Y115.82 E11.17565
G1 X262.019 Y116.485 E11.21125
G1 X262.255 Y117.151 E11.2465
G1 X262.36 Y117.461 E11.26283
G1 X262.429 Y117.675 E11.27405
G1 X262.627 Y118.362 E11.30972
G1 X262.798 Y119.034 E11.34431
G1 X262.872 Y119.344 E11.36021
G1 X262.919 Y119.553 E11.3709
G1 X263.061 Y120.3 E11.40884
G1 X263.17 Y121 E11.44418
G1 X263.216 Y121.323 E11.46046
G1 X263.248 Y121.576 E11.47318
G1 X263.315 Y122.284 E11.50866
G1 X263.356 Y122.929 E11.54091
G1 X263.373 Y123.292 E11.55904
G1 X263.391 Y123.861 E11.58744
G1 X263.396 Y124.086 E11.59867
G1 X263.399 Y124.34 E11.61134
G1 X263.4 Y124.475 E11.61807
G1 X263.4 Y175.293 E14.15339
G1 X263.399 Y175.46 E14.16173
G1 X263.385 Y176.416 E14.20943
G1 X263.367 Y176.9 E14.23359
G1 X263.334 Y177.477 E14.26242
G1 X263.27 Y178.197 E14.29849
G1 X263.188 Y178.874 E14.33251
G1 X263.134 Y179.263 E14.3521
G1 X263.099 Y179.487 E14.36341
G1 X262.979 Y180.135 E14.39629
G1 X262.826 Y180.843 E14.43243
G1 X262.749 Y181.174 E14.44938
G1 X262.699 Y181.376 E14.45977
G1 X262.508 Y182.056 E14.495
G1 X262.298 Y182.724 E14.52994
G1 X262.189 Y183.054 E14.54728
G1 X262.119 Y183.255 E14.5579
G1 X261.863 Y183.923 E14.59359
G1 X261.589 Y184.575 E14.62887
G1 X261.422 Y184.952 E14.64944
G1 X261.333 Y185.144 E14.66
G1 X261.052 Y185.709 E14.69148
G1 X260.717 Y186.338 E14.72704
G1 X260.522 Y186.689 E14.74707
G1 X260.408 Y186.886 E14.75842
G1 X260.065 Y187.442 E14.79102
G1 X259.688 Y188.015 E14.82524
G1 X259.469 Y188.334 E14.84454
G1 X259.331 Y188.529 E14.85646
G1 X258.926 Y189.068 E14.89009
G1 X258.509 Y189.589 E14.92339
G1 X258.277 Y189.869 E14.94153
G1 X258.113 Y190.061 E14.95413
G1 X257.652 Y190.569 E14.98835
G1 X257.17 Y191.069 E15.023
G1 X256.919 Y191.321 E15.04074
G1 X256.762 Y191.474 E15.05168
G1 X256.244 Y191.949 E15.08674
G1 X255.712 Y192.407 E15.12177
G1 X255.414 Y192.655 E15.14111
G1 X255.236 Y192.798 E15.1525
G1 X254.706 Y193.199 E15.18566
G1 X254.144 Y193.599 E15.22007
G1 X253.869 Y193.789 E15.23675
G1 X253.682 Y193.914 E15.24797
G1 X253.064 Y194.299 E15.2843
G1 X252.455 Y194.652 E15.31941
G1 X252.179 Y194.807 E15.33521
G1 X251.982 Y194.914 E15.34639
G1 X251.325 Y195.244 E15.38307
G1 X250.702 Y195.532 E15.41731
G1 X250.391 Y195.67 E15.43429
G1 X250.18 Y195.76 E15.44573
G1 X249.515 Y196.019 E15.48134
G1 X248.849 Y196.255 E15.51659
G1 X248.5 Y196.373 E15.53497
G1 X248.277 Y196.444 E15.54664
G1 X247.63 Y196.629 E15.58022
G1 X246.966 Y196.798 E15.6144
G1 X246.082 Y196.986 E15.65949
G1 X245.161 Y197.144 E15.70611
G1 X244.641 Y197.221 E15.73234
G1 X244.4 Y197.251 E15.74445
G1 X243.72 Y197.315 E15.77853
G1 X243.079 Y197.356 E15.81057
G1 X242.709 Y197.373 E15.82905
G1 X242.136 Y197.391 E15.85765
G1 X241.901 Y197.396 E15.86938
G1 X241.623 Y197.399 E15.88325
G1 X241.5 Y197.4 E15.88939
G1 X206.707 Y197.4 E17.62522
G1 X206.545 Y197.399 E17.6333
G1 X205.559 Y197.385 E17.68249
G1 X205.049 Y197.366 E17.70796
G1 X204.49 Y197.333 E17.73589
G1 X203.8 Y197.271 E17.77046
G1 X203.21 Y197.2 E17.8001
G1 X202.881 Y197.156 E17.81666
G1 X202.601 Y197.114 E17.83079
G1 X201.912 Y196.989 E17.86573
G1 X201.228 Y196.843 E17.90062
G1 X200.8 Y196.743 E17.92255
G1 X200.56 Y196.682 E17.9349
G1 X199.97 Y196.515 E17.96549
G1 X199.336 Y196.317 E17.99863
G1 X199.013 Y196.211 E18.01559
G1 X198.79 Y196.134 E18.02736
G1 X198.11 Y195.874 E18.06368
G1 X197.484 Y195.612 E18.09754
G1 X197.154 Y195.468 E18.1155
G1 X196.926 Y195.364 E18.128
G1 X196.319 Y195.065 E18.16176
G1 X195.685 Y194.729 E18.19756
G1 X195.344 Y194.541 E18.21698
G1 X195.252 Y194.488 E18.22228
G1 X192.948 Y193.21 E18.35373
G1 X190.757 Y192.074 E18.47686
G1 X188.497 Y190.983 E18.60206
G1 X186.204 Y189.955 E18.72743
G1 X183.85 Y188.976 E18.85462
G1 X181.56 Y188.103 E18.97689
G1 X179.187 Y187.272 E19.10233
G1 X176.812 Y186.516 E19.22668
G1 X174.367 Y185.811 E19.35363
G1 X171.961 Y185.192 E19.47757
G1 X169.501 Y184.631 E19.60345
G1 X167.078 Y184.154 E19.72666
G1 X164.561 Y183.73 E19.854
G1 X162.105 Y183.387 E19.97772
G1 X159.648 Y183.114 E20.10105
G1 X157.094 Y182.904 E20.2289
G1 X154.616 Y182.77 E20.35271
G1 X152.124 Y182.706 E20.47708
G1 X149.59 Y182.713 E20.6035
G1 X147.115 Y182.79 E20.72704
G1 X144.587 Y182.939 E20.85338
G1 X142.106 Y183.157 E20.97764
G1 X139.632 Y183.445 E21.1019
G1 X137.131 Y183.807 E21.22797
G1 X134.668 Y184.236 E21.3527
G1 X132.22 Y184.734 E21.47734
G1 X129.794 Y185.299 E21.60161
G1 X127.334 Y185.946 E21.72851
G1 X124.939 Y186.649 E21.85304
G1 X122.58 Y187.415 E21.97678
G1 X120.191 Y188.264 E22.10327
G1 X117.859 Y189.17 E22.22809
G1 X115.538 Y190.148 E22.35374
G1 X113.29 Y191.17 E22.47694
G1 X111.008 Y192.287 E22.6037
G1 X108.826 Y193.433 E22.72666
G1 X106.863 Y194.539 E22.83907
G1 X106.707 Y194.625 E22.84796
G1 X106.208 Y194.896 E22.87628
G1 X105.579 Y195.213 E22.91143
G1 X104.924 Y195.518 E22.94747
G1 X104.616 Y195.655 E22.96429
G1 X104.43 Y195.735 E22.97439
G1 X103.762 Y195.998 E23.01021
G1 X103.082 Y196.241 E23.04624
G1 X102.724 Y196.362 E23.06509
G1 X102.518 Y196.428 E23.07588
G1 X101.864 Y196.617 E23.10984
G1 X101.207 Y196.785 E23.14368
G1 X100.95 Y196.847 E23.15687
G1 X100.738 Y196.896 E23.16772
G1 X99.959 Y197.048 E23.20732
G1 X99.216 Y197.166 E23.24485
G1 X98.828 Y197.221 E23.2644
G1 X98.626 Y197.246 E23.27456
G1 X97.994 Y197.306 E23.30623
G1 X97.342 Y197.35 E23.33883
G1 X96.952 Y197.37 E23.35832
G1 X96.41 Y197.388 E23.38537
G1 X96.162 Y197.393 E23.39775
G1 X95.81 Y197.397 E23.41531
G1 X95.681 Y197.398 E23.42174
G1 X58.71 Y197.4 E25.26623
G1 X58.545 Y197.399 E25.27447
G1 X57.571 Y197.385 E25.32307
G1 X57.066 Y197.366 E25.34828
G1 X56.505 Y197.333 E25.37631
G1 X55.803 Y197.27 E25.41148
G1 X55.126 Y197.188 E25.4455
G1 X54.737 Y197.134 E25.46509
G1 X54.513 Y197.099 E25.4764
G1 X53.865 Y196.979 E25.50928
G1 X53.157 Y196.826 E25.54542
G1 X52.751 Y196.73 E25.56623
G1 X52.539 Y196.676 E25.57715
G1 X51.947 Y196.508 E25.60785
G1 X51.289 Y196.302 E25.64225
G1 X50.931 Y196.184 E25.66106
G1 X50.728 Y196.113 E25.67178
G1 X50.078 Y195.863 E25.70653
G1 X49.428 Y195.59 E25.7417
G1 X49.048 Y195.422 E25.76243
G1 X48.856 Y195.333 E25.77299
G1 X48.291 Y195.052 E25.80447
G1 X47.662 Y194.717 E25.84002
G1 X47.317 Y194.525 E25.85972
G1 X47.118 Y194.41 E25.87119
G1 X46.548 Y194.059 E25.90459
G1 X45.976 Y193.682 E25.93876
G1 X45.665 Y193.468 E25.9576
G1 X45.47 Y193.33 E25.96952
G1 X44.936 Y192.929 E26.00283
G1 X44.407 Y192.506 E26.03662
G1 X44.095 Y192.248 E26.05682
G1 X43.91 Y192.089 E26.06899
G1 X43.43 Y191.651 E26.10141
G1 X42.932 Y191.171 E26.13592
G1 X42.679 Y190.92 E26.1537
G1 X42.525 Y190.762 E26.16471
G1 X42.048 Y190.241 E26.19995
G1 X41.591 Y189.71 E26.2349
G1 X41.349 Y189.42 E26.25374
G1 X41.205 Y189.241 E26.26521
G1 X40.799 Y188.704 E26.29879
G1 X40.397 Y188.139 E26.33339
G1 X40.201 Y187.854 E26.35064
G1 X40.079 Y187.671 E26.36162
G1 X39.704 Y187.069 E26.397
G1 X39.35 Y186.459 E26.43219
G1 X39.181 Y186.157 E26.44945
G1 X39.074 Y185.959 E26.46068
G1 X38.755 Y185.322 E26.49622
G1 X38.468 Y184.701 E26.53035
G1 X38.33 Y184.391 E26.54728
G1 X38.24 Y184.18 E26.55873
G1 X37.981 Y183.515 E26.59433
G1 X37.745 Y182.849 E26.62958
G1 X37.64 Y182.539 E26.64591
G1 X37.571 Y182.325 E26.65713
G1 X37.373 Y181.638 E26.6928
G1 X37.202 Y180.966 E26.72739
G1 X37.128 Y180.656 E26.7433
G1 X37.081 Y180.447 E26.75398
G1 X36.939 Y179.7 E26.79192
G1 X36.83 Y179 E26.82726
G1 X36.783 Y178.665 E26.84414
G1 X36.751 Y178.41 E26.85696
G1 X36.685 Y177.716 E26.89174
G1 X36.644 Y177.073 E26.92389
G1 X36.627 Y176.714 E26.94182
G1 X36.608 Y176.122 E26.97137
G1 X36.602 Y175.843 E26.98529
G1 X36.6 Y175.582 E26.99831
G1 X36.6 Y124.707 E29.53647
G1 X36.601 Y124.54 E29.54481
G1 X36.615 Y123.584 E29.59251
G1 X36.633 Y123.1 E29.61667
G1 X36.666 Y122.523 E29.6455
G1 X36.73 Y121.803 E29.68157
G1 X36.812 Y121.126 E29.71559
G1 X36.866 Y120.737 E29.73518
G1 X36.901 Y120.513 E29.74649
G1 X37.021 Y119.865 E29.77937
G1 X37.174 Y119.157 E29.81551
G1 X37.264 Y118.775 E29.83509
G1 X37.317 Y118.565 E29.84589
G1 X37.492 Y117.943 E29.87813
G1 X37.699 Y117.283 E29.91264
G1 X37.811 Y116.946 E29.93036
G1 X37.881 Y116.745 E29.94098
G1 X38.137 Y116.077 E29.97667
G1 X38.411 Y115.425 E30.01195
G1 X38.578 Y115.048 E30.03252
G1 X38.667 Y114.856 E30.04308
G1 X38.948 Y114.291 E30.07456
G1 X39.283 Y113.662 E30.11012
G1 X39.478 Y113.311 E30.13015
G1 X39.592 Y113.114 E30.1415
G1 X39.935 Y112.558 E30.1741
G1 X40.312 Y111.985 E30.20832
G1 X40.531 Y111.666 E30.22762
G1 X40.669 Y111.471 E30.23954
G1 X41.074 Y110.932 E30.27317
G1 X41.491 Y110.411 E30.30647
G1 X41.723 Y110.131 E30.32461
G1 X41.887 Y109.939 E30.33721
G1 X42.348 Y109.43 E30.37147
G1 X42.833 Y108.927 E30.40633
G1 X43.086 Y108.674 E30.42418
G1 X43.24 Y108.524 E30.4349
G1 X43.762 Y108.046 E30.47022
G1 X44.304 Y107.58 E30.50588
G1 X44.595 Y107.338 E30.52476
G1 X44.763 Y107.203 E30.53551
G1 X45.292 Y106.802 E30.56863
G1 X45.858 Y106.399 E30.60329
G1 X46.146 Y106.201 E30.62073
G1 X46.329 Y106.079 E30.6317
G1 X46.931 Y105.704 E30.66709
G1 X47.541 Y105.35 E30.70227
G1 X47.84 Y105.183 E30.71936
G1 X48.036 Y105.077 E30.73048
G1 X48.675 Y104.756 E30.76615
G0 F3600 X48.843 Y105.119
G1 F2700 X49.466 Y104.831 E30.80039
G1 X49.766 Y104.698 E30.81677
G1 X49.977 Y104.608 E30.82821
G1 X50.619 Y104.358 E30.86258
G1 X51.285 Y104.122 E30.89783
G1 X51.583 Y104.021 E30.91353
G1 X51.797 Y103.952 E30.92475
G1 X52.46 Y103.761 E30.95917
G1 X53.132 Y103.59 E30.99377
G1 X53.432 Y103.518 E31.00916
G1 X53.641 Y103.471 E31.01985
G1 X54.362 Y103.334 E31.05646
