;FLAVOR:Marlin
;TIME:2228
;Filament used: 2.65745m
;Layer height: 0.2
;MINX:130.457
;MINY:102.636
;MINZ:0.3
;MAXX:169.54
;MAXY:197.363
;MAXZ:12.7
;Generated with Cura_SteamEngine 4.2.1
M140 S60
M105
M190 S60
M82 ;absolute extrusion mode
; start_gcode
M117 Start Clean        ; Indicate nozzle clean in progress on LCD
;
M104 S200 
M109 S200 
M109 R200 
;
M107                    ; Turn layer fan off
G21                     ; Set to metric [change to G20 if you want Imperial]
G90                     ; Force coordinates to be absolute relative to the origin
G28                     ; Home X/Y/Z axis
;
G1 X3 Y1 Z15 F9000      ; Move safe Z height to shear strings
G0 X1 Y1 Z0.2 F9000     ; Move in 1mm from edge and up [z] 0.2mm
G92 E0                  ; Set extruder to [0] zero
G1 X100 E12 F500        ; Extrude 30mm filiment along X axis 100mm long to prime and clean the nozzle
G92 E0                  ; Reset extruder to [0] zero end of cleaning run
G1 E-1 F500             ; Retract filiment by 1 mm to reduce string effect
G1 X180 F4000           ; quick wipe away from the filament line / purge
M117 End Clean          ; Indicate nozzle clean in progress on LCD
;
M117 Printing...
; Begin printing with sliced GCode after here
;
M141 S28
G92 E0
G92 E0
G1 F2400 E-6.8
;LAYER_COUNT:63
;LAYER:0
M107
M204 S500
M205 X8 Y8
G0 F3600 X133.617 Y108.069 Z0.3
;TYPE:SKIRT
G1 F2400 E0
G1 F2700 X133.814 Y107.828 E0.01553
G1 X134.001 Y107.605 E0.03005
G1 X134.644 Y106.9 E0.07765
G1 X135.469 Y106.147 E0.13338
G1 X135.921 Y105.773 E0.16265
G1 X136.681 Y105.196 E0.21025
G1 X137.679 Y104.575 E0.2689
G1 X137.987 Y104.405 E0.28645
G1 X138.226 Y104.277 E0.29997
G1 X138.414 Y104.179 E0.31055
G1 X139.279 Y103.774 E0.3582
G1 X140.099 Y103.467 E0.40189
G1 X140.431 Y103.357 E0.41934
G1 X140.902 Y103.212 E0.44392
G1 X141.145 Y103.143 E0.45652
G1 X142.074 Y102.92 E0.50419
G1 X142.686 Y102.818 E0.53514
G1 X142.887 Y102.79 E0.54527
G1 X143.483 Y102.723 E0.57519
G1 X143.855 Y102.691 E0.59382
G1 X144.444 Y102.656 E0.62325
G1 X144.796 Y102.644 E0.64083
G1 X145.183 Y102.637 E0.66014
G1 X154.308 Y102.636 E1.11538
G1 X154.464 Y102.637 E1.12317
G1 X155.199 Y102.647 E1.15984
G1 X155.727 Y102.666 E1.1862
G1 X155.977 Y102.681 E1.19869
G1 X156.376 Y102.712 E1.21866
G1 X156.785 Y102.751 E1.23916
G1 X157.731 Y102.882 E1.2868
G1 X158.935 Y103.168 E1.34854
G1 X159.51 Y103.338 E1.37846
G1 X160.414 Y103.647 E1.42612
G1 X161.624 Y104.201 E1.49251
G1 X162.14 Y104.475 E1.52166
G1 X162.964 Y104.958 E1.56931
G1 X163.912 Y105.639 E1.62755
G1 X164.206 Y105.874 E1.64633
G1 X164.464 Y106.086 E1.66299
G1 X164.629 Y106.226 E1.67378
G1 X165.33 Y106.874 E1.72141
G1 X165.839 Y107.42 E1.75865
G1 X165.977 Y107.578 E1.76911
G1 X166.302 Y107.967 E1.7944
G1 X166.527 Y108.249 E1.8124
G1 X167.091 Y109.02 E1.86006
G1 X167.538 Y109.746 E1.9026
G1 X167.693 Y110.02 E1.9183
G1 X167.904 Y110.409 E1.94038
G1 X168.02 Y110.634 E1.95301
G1 X168.421 Y111.5 E2.00062
G1 X168.702 Y112.253 E2.04072
G1 X168.824 Y112.619 E2.05997
G1 X168.98 Y113.125 E2.08638
G1 X169.043 Y113.348 E2.09794
G1 X169.263 Y114.277 E2.14557
G1 X169.382 Y115.016 E2.18292
G1 X169.414 Y115.269 E2.19564
G1 X169.467 Y115.78 E2.22127
G1 X169.495 Y116.126 E2.23859
G1 X169.528 Y116.744 E2.26947
G1 X169.536 Y117.046 E2.28454
G1 X169.54 Y117.4 E2.3022
G1 X169.263 Y177.903 E5.32074
G1 X169.262 Y178.034 E5.32727
G1 X169.248 Y178.908 E5.37088
G1 X169.192 Y179.861 E5.41851
G1 X169.095 Y180.594 E5.4554
G1 X169.032 Y180.973 E5.47457
G1 X168.836 Y181.908 E5.52223
G1 X168.562 Y182.823 E5.56988
G1 X168.213 Y183.711 E5.61748
G1 X167.776 Y184.595 E5.66668
G1 X167.444 Y185.199 E5.70107
G1 X167.339 Y185.387 E5.71181
G1 X164.418 Y190.471 E6.00434
G1 X164.341 Y190.603 E6.01196
G1 X164.043 Y191.106 E6.04113
G1 X163.459 Y191.995 E6.09419
G1 X163.167 Y192.397 E6.11898
G1 X162.574 Y193.145 E6.1666
G1 X161.92 Y193.841 E6.21425
G1 X161.211 Y194.48 E6.26187
G1 X160.368 Y195.114 E6.31449
G1 X160.154 Y195.26 E6.32742
G1 X159.343 Y195.765 E6.37508
G1 X158.493 Y196.2 E6.42272
G1 X157.372 Y196.645 E6.48289
G1 X157.117 Y196.731 E6.49632
G1 X156.2 Y196.998 E6.54397
G1 X155.265 Y197.187 E6.59156
G1 X154.316 Y197.298 E6.63923
G1 X153.739 Y197.326 E6.66805
G1 X152.62 Y197.352 E6.72389
G1 X152.373 Y197.355 E6.73621
G1 X147.248 Y197.363 E6.9919
G1 X147.089 Y197.362 E6.99983
G1 X146.443 Y197.354 E7.03207
G1 X145.431 Y197.297 E7.08263
G1 X145.008 Y197.254 E7.10385
G1 X144.063 Y197.117 E7.15149
G1 X143.133 Y196.902 E7.19911
G1 X142.224 Y196.611 E7.24673
G1 X141.504 Y196.317 E7.28553
G1 X141.256 Y196.206 E7.29908
G1 X140.401 Y195.78 E7.34674
G1 X139.586 Y195.284 E7.39434
G1 X138.814 Y194.721 E7.44201
G1 X138.315 Y194.3 E7.47458
G1 X138.051 Y194.064 E7.49224
G1 X137.367 Y193.399 E7.53984
G1 X136.74 Y192.678 E7.58751
G1 X135.936 Y191.534 E7.65727
G1 X135.767 Y191.259 E7.67337
G1 X135.616 Y191.005 E7.68811
G1 X132.519 Y185.66 E7.99631
G1 X132.437 Y185.516 E8.00457
G1 X132.097 Y184.909 E8.03928
G1 X131.653 Y184.03 E8.08842
G1 X131.527 Y183.751 E8.10369
G1 X131.171 Y182.865 E8.15133
G1 X130.89 Y181.953 E8.19894
G1 X130.644 Y180.755 E8.25995
G1 X130.593 Y180.416 E8.27706
G1 X130.472 Y179.096 E8.34319
G1 X130.463 Y178.823 E8.35681
G1 X130.457 Y178.447 E8.37557
G1 X130.457 Y117.737 E11.40441
G1 X130.458 Y117.568 E11.41284
G1 X130.466 Y117.027 E11.43983
G1 X130.498 Y116.327 E11.47479
G1 X130.551 Y115.634 E11.50947
G1 X130.664 Y114.686 E11.5571
G1 X130.884 Y113.638 E11.61052
G1 X130.965 Y113.326 E11.62661
G1 X131.134 Y112.741 E11.65698
G1 X131.228 Y112.445 E11.67248
G1 X131.555 Y111.547 E11.72016
G1 X131.915 Y110.76 E11.76333
G1 X132.026 Y110.54 E11.77563
G1 X132.237 Y110.142 E11.7981
G1 X132.398 Y109.852 E11.81465
G1 X132.896 Y109.037 E11.8623
G1 X133.433 Y108.301 E11.90776
G1 X133.617 Y108.069 E11.92253
G0 F3600 X133.931 Y108.318
G1 F2700 X134.12 Y108.085 E11.9375
G1 X134.307 Y107.862 E11.95202
G1 X134.94 Y107.17 E11.99881
G1 X135.724 Y106.455 E12.05174
G1 X136.176 Y106.081 E12.08101
G1 X136.923 Y105.514 E12.1278
G1 X137.872 Y104.926 E12.1835
G1 X138.18 Y104.756 E12.20105
G1 X138.411 Y104.632 E12.21413
G1 X138.599 Y104.534 E12.22471
G1 X139.449 Y104.136 E12.27153
G1 X140.224 Y103.846 E12.31281
G1 X140.556 Y103.736 E12.33026
G1 X141.011 Y103.596 E12.35401
G1 X141.254 Y103.527 E12.36662
G1 X142.167 Y103.31 E12.41343
G1 X142.741 Y103.214 E12.44247
G1 X142.942 Y103.186 E12.45259
G1 X143.517 Y103.121 E12.48146
G1 X143.889 Y103.089 E12.50009
G1 X144.457 Y103.055 E12.52848
G1 X144.809 Y103.043 E12.54605
G1 X145.183 Y103.037 E12.56471
G1 X154.308 Y103.036 E13.01996
G1 X154.459 Y103.037 E13.02749
G1 X155.194 Y103.047 E13.06417
G1 X155.703 Y103.066 E13.08958
G1 X155.953 Y103.081 E13.10207
G1 X156.338 Y103.111 E13.12134
G1 X156.747 Y103.15 E13.14184
G1 X157.676 Y103.278 E13.18862
G1 X158.822 Y103.551 E13.2474
G1 X159.397 Y103.721 E13.27731
G1 X160.284 Y104.025 E13.32409
G1 X161.437 Y104.555 E13.3874
G1 X161.953 Y104.829 E13.41655
G1 X162.762 Y105.304 E13.46335
G1 X163.662 Y105.952 E13.51868
G1 X163.956 Y106.187 E13.53746
G1 X164.205 Y106.391 E13.55352
G1 X164.37 Y106.531 E13.56431
G1 X165.058 Y107.168 E13.61109
G1 X165.538 Y107.683 E13.64621
G1 X165.676 Y107.841 E13.65668
G1 X165.989 Y108.217 E13.68109
G1 X166.214 Y108.499 E13.69909
G1 X166.768 Y109.256 E13.74589
G1 X167.19 Y109.943 E13.78611
G1 X167.345 Y110.217 E13.80182
G1 X167.548 Y110.592 E13.82309
G1 X167.664 Y110.817 E13.83572
G1 X168.058 Y111.669 E13.88255
G1 X168.323 Y112.379 E13.92036
G1 X168.445 Y112.745 E13.93961
G1 X168.595 Y113.233 E13.96508
G1 X168.658 Y113.456 E13.97664
G1 X168.874 Y114.369 E14.02345
G1 X168.985 Y115.067 E14.05871
G1 X169.017 Y115.32 E14.07143
G1 X169.068 Y115.813 E14.09616
G1 X169.096 Y116.159 E14.11348
G1 X169.128 Y116.755 E14.14325
G1 X169.136 Y117.057 E14.15833
G1 X169.14 Y117.398 E14.17534
G1 X168.863 Y177.901 E17.19388
G1 X168.862 Y178.027 E17.20016
G1 X168.848 Y178.901 E17.24377
G1 X168.793 Y179.837 E17.29055
G1 X168.7 Y180.529 E17.32539
G1 X168.637 Y180.908 E17.34455
G1 X168.444 Y181.826 E17.39135
G1 X168.173 Y182.724 E17.43815
G1 X167.827 Y183.595 E17.48491
G1 X167.426 Y184.403 E17.52991
G1 X167.094 Y185.007 E17.5643
G1 X166.992 Y185.188 E17.57466
G1 X164.071 Y190.272 E17.86719
G1 X163.997 Y190.399 E17.87452
G1 X163.699 Y190.902 E17.90369
G1 X163.135 Y191.76 E17.95492
G1 X162.843 Y192.162 E17.9797
G1 X162.26 Y192.896 E18.02647
G1 X161.616 Y193.579 E18.0733
G1 X160.917 Y194.204 E18.12008
G1 X160.142 Y194.784 E18.16838
G1 X159.928 Y194.93 E18.1813
G1 X159.132 Y195.425 E18.22807
G1 X158.296 Y195.85 E18.27485
G1 X157.244 Y196.266 E18.33129
G1 X156.989 Y196.352 E18.34472
G1 X156.089 Y196.614 E18.39149
G1 X155.169 Y196.798 E18.43829
G1 X154.237 Y196.903 E18.48508
G1 X153.73 Y196.926 E18.51041
G1 X152.611 Y196.952 E18.56625
G1 X152.372 Y196.955 E18.57817
G1 X147.247 Y196.963 E18.83386
G1 X147.094 Y196.962 E18.84149
G1 X146.448 Y196.954 E18.87372
G1 X145.472 Y196.899 E18.92249
G1 X145.049 Y196.856 E18.94371
G1 X144.12 Y196.721 E18.99054
G1 X143.207 Y196.508 E19.03731
G1 X142.315 Y196.218 E19.08411
G1 X141.667 Y195.952 E19.11906
G1 X141.419 Y195.841 E19.13261
G1 X140.58 Y195.422 E19.1794
G1 X139.78 Y194.933 E19.22618
G1 X139.025 Y194.377 E19.27296
G1 X138.582 Y194.002 E19.30191
G1 X138.318 Y193.766 E19.31958
G1 X137.646 Y193.112 E19.36636
G1 X137.032 Y192.402 E19.41319
G1 X136.277 Y191.324 E19.47885
G1 X136.108 Y191.049 E19.49496
G1 X135.962 Y190.805 E19.50914
G1 X132.865 Y185.46 E19.81733
G1 X132.786 Y185.321 E19.82531
G1 X132.446 Y184.714 E19.86002
G1 X132.018 Y183.865 E19.90746
G1 X131.892 Y183.586 E19.92273
G1 X131.543 Y182.716 E19.9695
G1 X131.269 Y181.819 E20.01629
G1 X131.039 Y180.695 E20.07353
G1 X130.988 Y180.356 E20.09063
G1 X130.872 Y179.082 E20.15445
G1 X130.863 Y178.809 E20.16808
G1 X130.857 Y178.447 E20.18614
G1 X130.857 Y117.737 E23.21498
G1 X130.858 Y117.574 E23.22311
G1 X130.866 Y117.033 E23.2501
G1 X130.897 Y116.357 E23.28386
G1 X130.95 Y115.664 E23.31854
G1 X131.061 Y114.733 E23.36532
G1 X131.271 Y113.739 E23.416
G1 X131.352 Y113.427 E23.43208
G1 X131.515 Y112.862 E23.46142
G1 X131.609 Y112.566 E23.47691
G1 X131.931 Y111.685 E23.52371
G1 X132.272 Y110.94 E23.56459
G1 X132.383 Y110.72 E23.57688
G1 X132.587 Y110.336 E23.59858
G1 X132.748 Y110.046 E23.61512
G1 X133.237 Y109.246 E23.6619
G1 X133.747 Y108.55 E23.70495
G1 X133.931 Y108.318 E23.71972
G0 F3600 X134.244 Y108.566
G1 F2700 X134.427 Y108.342 E23.73415
G1 X134.614 Y108.119 E23.74867
G1 X135.235 Y107.44 E23.79458
G1 X135.979 Y106.763 E23.84476
G1 X136.431 Y106.389 E23.87403
G1 X137.165 Y105.834 E23.91994
G1 X138.066 Y105.276 E23.97282
G1 X138.374 Y105.106 E23.99037
G1 X138.596 Y104.986 E24.00296
G1 X138.784 Y104.888 E24.01354
G1 X139.618 Y104.499 E24.05945
G1 X140.35 Y104.226 E24.09842
G1 X140.682 Y104.116 E24.11587
G1 X141.121 Y103.981 E24.13879
G1 X141.364 Y103.912 E24.15139
G1 X142.259 Y103.699 E24.19729
G1 X142.797 Y103.61 E24.22449
G1 X142.998 Y103.582 E24.23462
G1 X143.552 Y103.52 E24.26243
G1 X143.924 Y103.488 E24.28106
G1 X144.471 Y103.455 E24.3084
G1 X144.823 Y103.443 E24.32597
G1 X145.183 Y103.437 E24.34393
G1 X154.308 Y103.436 E24.79918
G1 X154.453 Y103.437 E24.80641
G1 X155.188 Y103.447 E24.84309
G1 X155.679 Y103.465 E24.8676
G1 X155.929 Y103.48 E24.88009
G1 X156.3 Y103.509 E24.89866
G1 X156.709 Y103.548 E24.91916
G1 X157.621 Y103.675 E24.9651
G1 X158.708 Y103.935 E25.02086
G1 X159.283 Y104.105 E25.05077
G1 X160.154 Y104.404 E25.09672
G1 X161.249 Y104.908 E25.15685
G1 X161.765 Y105.182 E25.186
G1 X162.559 Y105.649 E25.23196
G1 X163.412 Y106.264 E25.28442
G1 X163.706 Y106.499 E25.3032
G1 X163.946 Y106.696 E25.31869
G1 X164.111 Y106.836 E25.32949
G1 X164.786 Y107.462 E25.37542
G1 X165.237 Y107.946 E25.40842
G1 X165.375 Y108.104 E25.41889
G1 X165.677 Y108.466 E25.44241
G1 X165.902 Y108.748 E25.4604
G1 X166.444 Y109.492 E25.50633
G1 X166.842 Y110.14 E25.54427
G1 X166.997 Y110.414 E25.55997
G1 X167.193 Y110.776 E25.58051
G1 X167.309 Y111.001 E25.59314
G1 X167.695 Y111.837 E25.63908
G1 X167.943 Y112.506 E25.67468
G1 X168.065 Y112.872 E25.69392
G1 X168.21 Y113.342 E25.71846
G1 X168.273 Y113.565 E25.73002
G1 X168.484 Y114.461 E25.77595
G1 X168.588 Y115.117 E25.80908
G1 X168.62 Y115.37 E25.82181
G1 X168.669 Y115.845 E25.84563
G1 X168.697 Y116.191 E25.86295
G1 X168.728 Y116.765 E25.89163
G1 X168.736 Y117.067 E25.9067
G1 X168.74 Y117.397 E25.92317
G1 X168.463 Y177.9 E28.9417
G1 X168.462 Y178.021 E28.94774
G1 X168.448 Y178.895 E28.99135
G1 X168.393 Y179.814 E29.03728
G1 X168.306 Y180.463 E29.06995
G1 X168.243 Y180.842 E29.08912
G1 X168.052 Y181.743 E29.13507
G1 X167.785 Y182.624 E29.18099
G1 X167.441 Y183.478 E29.22693
G1 X167.075 Y184.21 E29.26776
G1 X166.743 Y184.814 E29.30214
G1 X166.645 Y184.989 E29.31215
G1 X163.724 Y190.073 E29.60468
G1 X163.653 Y190.195 E29.61172
G1 X163.355 Y190.698 E29.64089
G1 X162.811 Y191.525 E29.69027
G1 X162.519 Y191.927 E29.71506
G1 X161.946 Y192.647 E29.76097
G1 X161.313 Y193.315 E29.80688
G1 X160.624 Y193.926 E29.85282
G1 X159.917 Y194.453 E29.89682
G1 X159.703 Y194.599 E29.90974
G1 X158.921 Y195.085 E29.95568
G1 X158.099 Y195.5 E30.00162
G1 X157.116 Y195.887 E30.05432
G1 X156.861 Y195.973 E30.06775
G1 X155.977 Y196.229 E30.11366
G1 X155.074 Y196.408 E30.15959
G1 X153.72 Y196.526 E30.2274
G1 X152.601 Y196.552 E30.28324
G1 X152.372 Y196.555 E30.29467
G1 X147.247 Y196.563 E30.55035
G1 X147.099 Y196.562 E30.55774
G1 X146.453 Y196.554 E30.58997
G1 X145.512 Y196.501 E30.63699
G1 X145.089 Y196.458 E30.6582
G1 X144.178 Y196.325 E30.70414
G1 X143.282 Y196.114 E30.75006
G1 X142.408 Y195.825 E30.79599
G1 X141.831 Y195.587 E30.82712
G1 X141.583 Y195.476 E30.84068
G1 X140.759 Y195.064 E30.88664
G1 X139.975 Y194.582 E30.93256
G1 X139.236 Y194.033 E30.97849
G1 X138.848 Y193.704 E31.00387
G1 X138.584 Y193.468 E31.02153
G1 X137.925 Y192.825 E31.06747
G1 X137.325 Y192.127 E31.11339
G1 X136.618 Y191.115 E31.17498
G1 X136.449 Y190.84 E31.19108
G1 X136.308 Y190.604 E31.2048
G1 X133.211 Y185.259 E31.51299
G1 X133.135 Y185.125 E31.52067
G1 X132.795 Y184.518 E31.55539
G1 X132.382 Y183.701 E31.60106
G1 X132.256 Y183.422 E31.61633
G1 X131.914 Y182.567 E31.66227
G1 X131.648 Y181.686 E31.70819
G1 X131.435 Y180.636 E31.76164
G1 X131.384 Y180.297 E31.77874
G1 X131.272 Y179.069 E31.84026
G1 X131.263 Y178.796 E31.85389
G1 X131.257 Y178.447 E31.8713
G1 X131.257 Y117.737 E34.90014
G1 X131.258 Y117.58 E34.90797
G1 X131.266 Y117.039 E34.93496
G1 X131.296 Y116.388 E34.96748
G1 X131.349 Y115.695 E35.00215
G1 X131.459 Y114.781 E35.04808
G1 X131.658 Y113.839 E35.09611
G1 X131.739 Y113.527 E35.11219
G1 X131.896 Y112.983 E35.14044
G1 X131.99 Y112.687 E35.15594
G1 X132.307 Y111.822 E35.2019
G1 X132.629 Y111.12 E35.24043
G1 X132.74 Y110.9 E35.25272
G1 X132.936 Y110.53 E35.27361
G1 X133.097 Y110.24 E35.29016
G1 X133.579 Y109.455 E35.33612
G1 X134.06 Y108.798 E35.37674
G1 X134.244 Y108.566 E35.39151
G0 F3600 X134.557 Y108.815
G1 F2700 X134.733 Y108.599 E35.40542
G1 X134.92 Y108.376 E35.41993
G1 X135.531 Y107.71 E35.46503
G1 X136.234 Y107.071 E35.51242
G1 X136.686 Y106.697 E35.54169
G1 X137.406 Y106.153 E35.58671
G1 X138.259 Y105.626 E35.63674
G1 X138.567 Y105.456 E35.65429
G1 X138.781 Y105.341 E35.66641
G1 X138.969 Y105.243 E35.67698
G1 X139.788 Y104.862 E35.72205
G1 X140.476 Y104.606 E35.75867
G1 X140.808 Y104.496 E35.77612
G1 X141.23 Y104.366 E35.79815
G1 X141.473 Y104.297 E35.81076
G1 X142.352 Y104.089 E35.85582
G1 X142.852 Y104.007 E35.8811
G1 X143.053 Y103.979 E35.89122
G1 X143.586 Y103.919 E35.91798
G1 X143.958 Y103.887 E35.93661
G1 X144.484 Y103.855 E35.9629
G1 X144.836 Y103.843 E35.98047
G1 X145.183 Y103.837 E35.99779
